!!!SOCIAL_FUNCTION:	songs used in the treatment of the sick
!!!PDT:	1929
!!!OTL: No_92_The_Owl_Feather_is_Looking_for_the_Dawn.krn
!!!REG: Southwest
!!!LANG: Non-Tone
!!!LING_GROUP: Uto-Aztecan
**kern
*staff1
=1-
*clefF4
*k[b-e-a-d-g-c-]
*M2/4
4E-\
8.B-\L
16F\Jk
=2||
*M5/8
4G-\
12F\L
12E-\
12E-\J
8E-\
=3!|:
*M2/4
8.F\L
16E-\Jk
12F\L
12E-\
12E-\J
=4||
*M3/4
8.E-\L
16E-\Jk
8.E-\L
16E-\Jk
8.C-/L
16C-/Jk
=5
12E-\L
12E-\
12E-\J
8E-\L
[8E-\J
8E-\]
8r
=6||
*M2/4
8.B-\L
16F\Jk
12G-\L
12G-\
12G-\J
=7
12F\L
12E-\
12E-\J
8.E-/L
16C-/Jk
=8||
*M3/4
8.E-\L
16E-\Jk
12F\L
12E-\
12E-\J
8E-\
24C-/LL
24C-/
24C-/JJ
=9||
*M2/4
4E-\
12E-\L
12E-\
12E-\J
=10
4E-\
4r
==:|!
*-
